X:1
T:Fly, love, aloft - Wilbye
T:#
%%score [ 1 2 3 ] { ( 4 5 ) | 6 }
L:1/8
Q:1/4=132
M:4/4
K:F
V:1 treble nm="Soprano" snm="S"
V:2 treble nm="Alto" snm="A"
V:3 treble-8 nm="Tenor" snm="T"
V:4 treble nm="Midi_7"
V:5 treble 
V:6 bass 
V:1
"^Fly, love, aloft""^John Wilbye\n (1574-1638)"!mf! (FEFG) A2 F2 | c8 | z2 c2 c2 A2 | %3
w: Fly, * * * love, a-|loft|to heav'n, and|
 G2 F2 (F2 E2) |[M:4/4] F4 z4 | (c=Bcd) e2 c2 | c2 c2 f4 | (edef) g2 f2 | d3 e f2 f2 | e2 f2 d4 | %10
w: look out for\- *|tune,|fly, * * * love, a-|loft to heav'n,|fly, * * * love, a-|loft to heav'n, and|look out for-|
 c4!p! c4 | c2 c2 c2 c2 | d3 c B2 A2 | G4 G2"^cresc." c2 | d2 e2 d2 d2 | e4 f2 d2- | d2 c2 c4 | %17
w: tune: Then|sweet- ly, sweet- ly,|sweet- ly her im-|por- tune, That|I from my Ca-|lis- to, best|* be- lov-|
 A4 z4 | z2!f! f2 f2 f2 | d3 c B2 _e2 | d2 c2 (c2 =B2) | c8 | z2 c2 c2 c2 | A3 G F4 | z2 B2 B3 A | %25
w: ed,|As you and|she sit down, be|ne- ver mov\- *|ed,|as you and|she sit down,|as you and|
 G2 F2 E2 F2 | G2 A2 G4 | A4!p! F4 | c4 z2"^cresc." c2 | c3 B A2 c2 | B2 A2 G4 | F8 | z4!f! c4 | %33
w: she sit down, he|ne- ver mov-|ed: And,|love, to|Ca- ri- mel see|you com- mend|me!|to|
 c3 B A2 c2 | B2 A2 G4 | F4 z2 c2- | cc B2 c4 | A4 F2 FG | A3 B c4 | c2 cd e3 f | g6 g2 | %41
w: Ca- ri- mel see|you com- mend|me, see|* you com- mend|me, For- tune, for|his sweet sake,|for- tune, for his sweet|sake, may|
 f2 e2 d4 | e4 z4 | z4 z2 f2- | fc e2 d2 d2 | c4 F2 B2- | B2 A2 G4 | A4!p! F4 | c4 z2"^cresc." c2 | %49
w: chance be- friend|me,|for\-|* tune, for his sweet|sake, may chance|* be- friend|me. And,|love, to|
 c3 B A2 c2 | B2 A2 G4 | F8 | z4!f! c4 | c3 B A2 c2 | B2 A2 G4 | F4 z2 c2- | cc B2 c4 | A4 F2 FG | %58
w: Ca- ri- mel see|you com- mend|me!|to|Ca- ri- mel see|you com- mend|me, see|* you com- mend|me, For- tune, for|
 A3 B c4 | c2 cd e3 f | g6 g2 | f2 e2 d4 | e4 z4 | z4 z2 f2- | fc e2 d2 d2 | %65
w: his sweet sake,|for- tune, for his sweet|sake, may|chance be- friend|me,|for\-|* tune, for his sweet|
[Q:1/4=128] c4[Q:1/4=123] F2[Q:1/4=120] B2- |[Q:1/4=117] B2[Q:1/4=114] A2[Q:1/4=110] G4 | %67
w: sake, may chance|* be- friend|
[Q:1/4=108] A16 |] %68
w: me.|
V:2
 z8 |!mf! (C=B,CD) E2 C2 | F4 z2 c2 | c2 A2 G2 G2 |[M:4/4] A4 B2 F2 | G2 A2 G2 G2 | (FEFG) A2 F2 | %7
w: |Fly, * * * love, a-|loft to|heav'n, and look out|for- tune, and|look out for- tune,|fly, * * * love, a-|
 c6 A2 | B4 A4 | G2 A2 G4 | G6!p! A2 | G2 A2 G2 A2 | B3 A G2 F2 | E4 E2"^cresc." G2 | G2 G2 G2 G2 | %15
w: loft to|heav'n, and|look out for-|tune: Then|sweet- ly, sweet- ly,|sweet- ly her im-|por- tune, That|I from my Ca-|
 G4 c2 B2- | B2 A2 G4 | F2!f! c2 c2 c2 | A3 G F4 | z4 z2 G2 | G2 _E2 D4 | =E2 G2 G2 G2 | E3 D C4 | %23
w: lis- to, best|* be- lov-|ed, As you and|she sit down,|be|ne- ver mov-|ed, as you and|she sit down,|
 z2 F2 F2 F2 | D3 C B,4 | C2 c4 =B2 | c8 | c8 | z4!p! G4 | A4 z4 | z2"^cresc." c2 c3 B | %31
w: as you and|she sit down,|he ne- ver|mov-|ed:|And,|love,|to Ca- ri-|
 A2 c2 B2 A2 | G2 F3 F E2 | F8 | z2!f! c2 c3 B | A2 c2 B2 A2 | G2 F2 F2 E2 | F2 FG A3 B | %38
w: mel see you com-|mend me, com- mend|me!|to Ca- ri-|mel see you com-|mend, com- mend me,|For- tune, for his sweet|
 c4 C2 CD | E3 F G4- | G2 c2 =B2 G2 | (A_B c4 =B2) | c2 c3 G A2 | G2 G2 A2 B2 | G3 A B2 G2 | %45
w: sake, for- tune, for|his sweet sake,|* may chance be|friend * * *|me, for- tune, for|his sweet sake, for-|tune, for his sweet|
 A2 F2 D2 (G2- | GF) (F4 E2) | F8 | z4!p! G4 | A4 z4 | z2"^cresc." c2 c3 B | A2 c2 B2 A2 | %52
w: sake, may chance be\-|* * friend *|me.|And,|love,|to Ca- ri-|mel see you com-|
 G2 F3 F E2 | F8 | z2!f! c2 c3 B | A2 c2 B2 A2 | G2 F2 F2 E2 | F2 FG A3 B | c4 C2 CD | E3 F G4- | %60
w: mend me, com- mend|me!|to Ca- ri-|mel see you com-|mend, com- mend me,|For- tune, for his sweet|sake, for- tune, for|his sweet sake,|
 G2 c2 =B2 G2 | (A_B c4 =B2) | c2 c3 G A2 | G2 G2 A2 B2 | G3 A B2 G2 | A2 F2 D2 (G2- | %66
w: * may chance be|friend * * *|me, for- tune, for|his sweet sake, for-|tune, for his sweet|sake, may chance be\-|
 GF) (F4 E2) | F16 |] %68
w: * * friend *|me.|
V:3
 z8 | z8 |!mf! (FEFG) A2 F2 | c6 c2 |[M:4/4][K:treble-8] f3 e d2 d2 | c8 | F4 z4 | (c=Bcd) e2 f2 | %8
w: ||Fly, * * * love, a-|loft to|heav'n, and look out|for-|tune,|fly, * * * love, a-|
 g2 G2 A3 B | c2 F2 G4 | c6!p! f2 | e2 f2 c2 f2 | B3 c _e2 f2 | c4 c2"^cresc." c2 | =B2 c2 G2 G2 | %15
w: loft to heav'n, and|look out for-|tune: Then|sweet- ly, sweet- ly,|sweet- ly her im-|por- tune, That|I from my Ca-|
 c4 A2 B2- | B2 F2 c4 | F4 z2!f! f2 | f2 f2 d3 c | B2 A2 B2 c2 | G8 | c4 z2 c2 | c2 c2 A3 G | %23
w: lis- to, best|* be- lov-|ed, As|you and she sit|down, be ne- ver|mov-|ed, As|you and she sit|
 F4 z2 B2 | B2 B2 G3 F | E2 F2 c2 d2 | c8 | F8 | z4!p! c4 | f8 | z4"^cresc." c4 | f3 e d2 f2 | %32
w: down, as|you and she sit|down, he ne- ver|mov-|ed:|And,|love,|to|Ca- ri- mel see|
 e2 d2 c4 | F8 | z4!f! c4 | f3 e d2 f2 | e2 d2 c4 | F8 | F2 FG A3 B | c4 c2 cd | e3 f g2 e2 | %41
w: you com- mend|me,|to|Ca- ri- mel see|you com- mend|me,|For- tune, for his sweet|sake, for- tune, for|his sweet sake, my|
 d2 c2 g4 | c4 z2 f2- | fc e2 d2 d2 | c4 B4 | A4 B4 | c8 | F8 | z4!p! c4 | f8 | z4"^cresc." c4 | %51
w: chance be- friend|me, for\-|* tune, for his sweet|sake, may|chance be-|friend|me.|And,|love,|to|
 f3 e d2 f2 | e2 d2 c4 | F8 | z4!f! c4 | f3 e d2 f2 | e2 d2 c4 | F8 | F2 FG A3 B | c4 c2 cd | %60
w: Ca- ri- mel see|you com- mend|me,|to|Ca- ri- mel see|you com- mend|me,|For- tune, for his sweet|sake, for- tune, for|
 e3 f g2 e2 | d2 c2 g4 | c4 z2 f2- | fc e2 d2 d2 | c4 B4 | A4 B4 | c8 | F16 |] %68
w: his sweet sake, my|chance be- friend|me, for\-|* tune, for his sweet|sake, may|chance be-|friend|me.|
V:4
!mf! FEFG A2 F2 | c8 | z2 c2 c2 A2 | G2 F2 F2 E2 |[M:4/4] F4 x4 | c=Bcd e2 c2 | c2 c2 f4 | %7
 edef g2 f2 | d3 e f2 f2 | e2 f2 d4 | c4!p! c4 | c2 c2 c2 c2 | d3 c B2 A2 | G4 G2 c2 | %14
 d2 e2 d2 d2 | e4 f2 d2- | d2 c2 c4 | A4 x4 | z2 f2 f2 f2 | d3 c B2 _e2 | d2 c2 c2 =B2 | c8 | %22
 z2 c2 c2 c2 | A3 G F4 | z2 B2 B3 A | G2 F2 E2 F2 | G2 A2 G4 | A4!p! F4 | c4 z2"^cresc." c2 | %29
 c3 B A2 c2 | B2 A2 G4 | F8 | z4!f! c4 | c3 B A2 c2 | B2!f! A2 G4 | F4 x2 c2- | cc B2 c4 | %37
 A4 F2 FG | A3 B c4 | c2 cd e3 f | g6 g2 | f2 e2 d4 | e4 x4 | x4 x2 f2- | fc e2 d2 d2 | c4 F2 B2- | %46
 B2 A2 G4 | A4 F4 | c4 z2"^cresc." c2 | c3 B A2 c2 | B2 A2 G4 | F8 | z4!f! c4 | c3 B A2 c2 | %54
 B2!f! A2 G4 | F4 x2 c2- | cc B2 c4 | A4 F2 FG | A3 B c4 | c2 cd e3 f | g6 g2 | f2 e2 d4 | e4 x4 | %63
 x4 x2 f2- | fc e2 d2 d2 | c4 F2 B2- | B2 A2 G4 | A16 |] %68
V:5
 x8 | C=B,CD E2 C2 | F4 x2 c2 | c2 A2 [FG]2 G2 |[M:4/4] A4 B2 F2 | G2 A2 G2 G2 | FEFG A2 F2 | %7
 c6 A2 | B4 A4 | G2 A2 G4 | G6 A2 | G2 A2 G2 A2 | B3 A G2 F2 | E4 E2 G2 | G2 G2 G2 G2 | G4 c2 B2- | %16
 B2 A2 G4 | F2!f! c2 c2 c2 | A3 G F4 | x4 x2 G2 | G2 _E2 D4 | =E2 G2 G2 G2 | E3 D C4 | %23
 z2 F2 F2 F2 | D3 C B,4 | C2 c4 =B2 | c8 | c8 | x4 G4 | A4 x4 | x2 c2 c3 B | A2 c2 B2 A2 | %32
 G2 F3 F E2 | F8 | x2 c2 c3 B | A2 c2 B2 A2 | G2 F2 F2 E2 | F2 FG A3 B | c4 C2 CD | E3 F G4- | %40
 G2 c2 =B2 G2 | A_B c4 =B2 | c2 c3 G A2 | G2 G2 A2 B2 | G3 A B2 G2 | A2 F2 D2 G2- | GF F4 E2 | F8 | %48
 x4 G4 | A4 x4 | x2 c2 c3 B | A2 c2 B2 A2 | G2 F3 F E2 | F8 | x2 c2 c3 B | A2 c2 B2 A2 | %56
 G2 F2 F2 E2 | F2 FG A3 B | c4 C2 CD | E3 F G4- | G2 c2 =B2 G2 | A_B c4 =B2 | c2 c3 G A2 | %63
 G2 G2 A2 B2 | G3 A B2 G2 | A2 F2 D2 G2- | GF F4 E2 | F16 |] %68
V:6
 z8 | z8 |!mf! F,E,F,G, A,2 F,2 | C6 C2 |[M:4/4] F3 E D2 D2 | C8 | F,4 z4 | C=B,CD E2 F2 | %8
 G2 G,2 A,3 B, | C2 F,2 G,4 |[I:staff -1] C6 F2 | E2 F2 C2 F2 | %12
[I:staff +1] B,3 C[I:staff -1] _E2 F2 | C4 C2"^cresc."[I:staff +1] C2 | =B,2 C2 G,2 G,2 | %15
 C4 A,2 B,2- | B,2 F,2 C4 | F,4 z2 F2 | F2 F2 D3 C | B,2 A,2 B,2 C2 | G,8 | C4 z2 C2 | %22
 C2 C2 A,3 G, | F,4 z2 B,2 | B,2 B,2 G,3 F, | E,2 F,2 C2 D2 | C8 | F,8 | z4 C4 | F8 | z4 C4 | %31
 F3 E D2 F2 | E2 D2 C4 | F,8 | z4 C4 | F3 E D2 F2 | E2 D2 C4 | F,8 | F,2 F,G, A,3 B, | C4 C2 CD | %40
 E,3 F, G,2 E,2 | D,2 C,2 G,4 | C,4 z2 F,2- | F,C, E,2 D,2 D,2 | C4 B,4 | A,4 B,4 | C8 | F,8 | %48
 z4 C4 | F8 | z4 C4 | F3 E D2 F2 | E2 D2 C4 | F,8 | z4 C4 | F3 E D2 F2 | E2 D2 C4 | F,8 | %58
 F,2 F,G, A,3 B, | C4 C2 CD | E3 F G2 E2 | D2 C2 G4 | C4 z2 F2- | FC E2 D2 D2 | C4 B,4 | A,4 B,4 | %66
 C8 | F,16 |] %68

